static/library/payload_dark.svg

<svg width="256" height="256" viewBox="0 0 256 256" fill="none" xmlns="http://www.w3.org/2000/svg"><path d="M126.675 216.375L52.1751 173.375C51.2501 172.825 50.6751 171.85 50.6751 170.775V104.375C50.6751 103.225 51.9251 102.5 52.9251 103.075L139.425 153.025C140.625 153.725 142.15 152.85 142.15 151.45V119.05C142.15 117.75 141.45 116.575 140.35 115.925L36.2501 55.8C35.3251 55.25 34.1751 55.25 33.2251 55.8L19.6001 63.675C18.6751 64.225 18.1001 65.2 18.1001 66.275V189.7C18.1001 190.775 18.6751 191.775 19.6001 192.3L126.475 254C127.4 254.55 128.55 254.55 129.5 254L219.25 202.175C220.45 201.475 220.45 199.75 219.25 199.05L191.25 182.875C190.125 182.225 188.75 182.225 187.625 182.875L129.675 216.325C128.75 216.875 127.6 216.875 126.65 216.325L126.675 216.375Z" fill="#fff"/><path d="M236.4 63.675L129.5 1.975C128.575 1.425 127.425 1.425 126.475 1.975L69.9752 34.6C68.7752 35.3 68.7752 37.025 69.9752 37.725L97.7252 53.75C98.8502 54.4 100.225 54.4 101.35 53.75L126.65 39.15C127.575 38.6 128.725 38.6 129.675 39.15L204.175 82.15C205.1 82.7 205.675 83.675 205.675 84.75V151.5C205.675 152.8 206.375 153.975 207.475 154.625L235.175 170.625C236.375 171.325 237.9 170.45 237.9 169.05V66.3C237.9 65.225 237.325 64.225 236.4 63.7V63.675Z" fill="#fff"/></svg>

<svg xmlns="http://www.w3.org/2000/svg" width="256" height="256" fill="none"><path fill="#fff" d="m126.675 216.375-74.5-43a3.023 3.023 0 0 1-1.5-2.6v-66.4c0-1.15 1.25-1.875 2.25-1.3l86.5 49.95c1.2.7 2.725-.175 2.725-1.575v-32.4c0-1.3-.7-2.475-1.8-3.125L36.25 55.8a2.98 2.98 0 0 0-3.025 0L19.6 63.675a3.023 3.023 0 0 0-1.5 2.6V189.7c0 1.075.575 2.075 1.5 2.6L126.475 254a2.98 2.98 0 0 0 3.025 0l89.75-51.825c1.2-.7 1.2-2.425 0-3.125l-28-16.175a3.613 3.613 0 0 0-3.625 0l-57.95 33.45a2.98 2.98 0 0 1-3.025 0l.025.05ZM236.4 63.675l-106.9-61.7a2.98 2.98 0 0 0-3.025 0L69.975 34.6c-1.2.7-1.2 2.425 0 3.125l27.75 16.025c1.125.65 2.5.65 3.625 0l25.3-14.6a2.98 2.98 0 0 1 3.025 0l74.5 43c.925.55 1.5 1.525 1.5 2.6v66.75c0 1.3.7 2.475 1.8 3.125l27.7 16c1.2.7 2.725-.175 2.725-1.575V66.3a2.993 2.993 0 0 0-1.5-2.6v-.025Z"/></svg>
